public/images/hashed/55beae00d4c1a0390cf1d0ab564bde06.svg

<svg xmlns="http://www.w3.org/2000/svg" width="80" height="80"><defs><linearGradient id="a" x1="0%" x2="100%" y1="100%" y2="0%"><stop offset="0%" stop-color="#2E27AD"/><stop offset="100%" stop-color="#527FFF"/></linearGradient></defs><g fill="none" fill-rule="evenodd"><path fill="url(#a)" d="M0 0h80v80H0z"/><path fill="#FFF" d="M65 58a1.001 1.001 0 0 1 0-2 1.001 1.001 0 0 1 0 2Zm-9.5 8a2.503 2.503 0 0 1-2.5-2.5c0-1.378 1.121-2.5 2.5-2.5s2.5 1.122 2.5 2.5-1.121 2.5-2.5 2.5ZM51 48.5c0-1.93 1.57-3.5 3.5-3.5s3.5 1.57 3.5 3.5-1.57 3.5-3.5 3.5-3.5-1.57-3.5-3.5ZM45 40a1.001 1.001 0 0 1 0-2 1.001 1.001 0 0 1 0 2Zm-3 14c-1.103 0-2-.897-2-2s.897-2 2-2 2 .897 2 2-.897 2-2 2Zm21-21c1.103 0 2 .897 2 2s-.897 2-2 2-2-.897-2-2 .897-2 2-2Zm2 21c-1.654 0-3 1.346-3 3 0 .446.104.865.279 1.246l-3.505 2.188a4.467 4.467 0 0 0-2.517-1.357l-.238-5.295C58.314 53.121 60 51.005 60 48.5a5.477 5.477 0 0 0-1.53-3.796l3.485-5.86A3.93 3.93 0 0 0 63 39c2.206 0 4-1.794 4-4s-1.794-4-4-4-4 1.794-4 4c0 1.122.467 2.133 1.213 2.86l-3.372 5.671a5.45 5.45 0 0 0-5.447.435l-3.661-3.743c.168-.374.267-.786.267-1.223 0-1.654-1.346-3-3-3s-3 1.346-3 3 1.346 3 3 3c.486 0 .939-.127 1.347-.334l3.63 3.712a5.465 5.465 0 0 0-.942 3.725l-3.664.762A3.993 3.993 0 0 0 42 48c-2.206 0-4 1.794-4 4s1.794 4 4 4 4-1.794 4-4c0-.075-.018-.145-.021-.218l3.64-.758a5.504 5.504 0 0 0 4.406 2.952l.235 5.219C52.384 59.738 51 61.452 51 63.5c0 2.481 2.019 4.5 4.5 4.5s4.5-2.019 4.5-4.5c0-.467-.092-.91-.225-1.334l3.947-2.463A2.96 2.96 0 0 0 65 60c1.654 0 3-1.346 3-3s-1.346-3-3-3ZM31.5 15c9.724 0 16.5 3.162 16.5 6s-6.776 6-16.5 6S15 23.838 15 21s6.776-6 16.5-6ZM48 60.02c0 2.752-6.776 5.82-16.5 5.82S15 62.772 15 60.02v-8.24c2.957 2.522 8.937 4.174 16.167 4.174 1.703 0 3.424-.095 5.112-.282l-.22-1.988a44.61 44.61 0 0 1-4.892.27C21.496 53.954 15 50.919 15 48.086v-9.799c2.957 2.522 8.937 4.173 16.167 4.173 3.465 0 6.829-.384 9.728-1.112l-.487-1.939c-2.742.688-5.937 1.051-9.241 1.051C21.496 40.46 15 37.426 15 34.592v-9.87C17.997 27.305 24.104 29 31.5 29c7.396 0 13.503-1.695 16.5-4.278V36h2V21c0-4.561-7.953-8-18.5-8S13 16.439 13 21v39.02c0 4.458 7.953 7.82 18.5 7.82S50 64.478 50 60.02V55h-2v5.02Z"/></g></svg>

<?xml version="1.0" encoding="UTF-8"?>
<svg width="80px" height="80px" viewBox="0 0 80 80" version="1.1" xmlns="http://www.w3.org/2000/svg" xmlns:xlink="http://www.w3.org/1999/xlink">
    <!-- Generator: Sketch 64 (93537) - https://sketch.com -->
    <title>Icon-Architecture/64/Arch_Amazon-Neptune_64</title>
    <desc>Created with Sketch.</desc>
    <defs>
        <linearGradient x1="0%" y1="100%" x2="100%" y2="0%" id="linearGradient-1">
            <stop stop-color="#2E27AD" offset="0%"></stop>
            <stop stop-color="#527FFF" offset="100%"></stop>
        </linearGradient>
    </defs>
    <g id="Icon-Architecture/64/Arch_Amazon-Neptune_64" stroke="none" stroke-width="1" fill="none" fill-rule="evenodd">
        <g id="Icon-Architecture-BG/64/Database" fill="url(#linearGradient-1)">
            <rect id="Rectangle" x="0" y="0" width="80" height="80"></rect>
        </g>
        <path d="M65,58 C64.448,58 64,57.551 64,57 C64,56.449 64.448,56 65,56 C65.552,56 66,56.449 66,57 C66,57.551 65.552,58 65,58 L65,58 Z M55.5,66 C54.121,66 53,64.878 53,63.5 C53,62.122 54.121,61 55.5,61 C56.879,61 58,62.122 58,63.5 C58,64.878 56.879,66 55.5,66 L55.5,66 Z M51,48.5 C51,46.57 52.57,45 54.5,45 C56.43,45 58,46.57 58,48.5 C58,50.43 56.43,52 54.5,52 C52.57,52 51,50.43 51,48.5 L51,48.5 Z M45,40 C44.448,40 44,39.551 44,39 C44,38.449 44.448,38 45,38 C45.552,38 46,38.449 46,39 C46,39.551 45.552,40 45,40 L45,40 Z M42,54 C40.897,54 40,53.103 40,52 C40,50.897 40.897,50 42,50 C43.103,50 44,50.897 44,52 C44,53.103 43.103,54 42,54 L42,54 Z M63,33 C64.103,33 65,33.897 65,35 C65,36.103 64.103,37 63,37 C61.897,37 61,36.103 61,35 C61,33.897 61.897,33 63,33 L63,33 Z M65,54 C63.346,54 62,55.346 62,57 C62,57.446 62.104,57.865 62.279,58.246 L58.774,60.434 C58.117,59.732 57.244,59.245 56.257,59.077 L56.019,53.782 C58.314,53.121 60,51.005 60,48.5 C60,47.028 59.415,45.692 58.47,44.704 L61.955,38.844 C62.29,38.936 62.637,39 63,39 C65.206,39 67,37.206 67,35 C67,32.794 65.206,31 63,31 C60.794,31 59,32.794 59,35 C59,36.122 59.467,37.133 60.213,37.86 L56.841,43.531 C56.13,43.194 55.338,43 54.5,43 C53.348,43 52.278,43.358 51.394,43.966 L47.733,40.223 C47.901,39.849 48,39.437 48,39 C48,37.346 46.654,36 45,36 C43.346,36 42,37.346 42,39 C42,40.654 43.346,42 45,42 C45.486,42 45.939,41.873 46.347,41.666 L49.977,45.378 C49.362,46.266 49,47.341 49,48.5 C49,48.704 49.013,48.905 49.035,49.103 L45.371,49.865 C44.66,48.748 43.42,48 42,48 C39.794,48 38,49.794 38,52 C38,54.206 39.794,56 42,56 C44.206,56 46,54.206 46,52 C46,51.925 45.982,51.855 45.979,51.782 L49.619,51.024 C50.467,52.656 52.105,53.811 54.025,53.976 L54.26,59.195 C52.384,59.738 51,61.452 51,63.5 C51,65.981 53.019,68 55.5,68 C57.981,68 60,65.981 60,63.5 C60,63.033 59.908,62.59 59.775,62.166 L63.722,59.703 C64.11,59.888 64.541,60 65,60 C66.654,60 68,58.654 68,57 C68,55.346 66.654,54 65,54 L65,54 Z M31.5,15 C41.224,15 48,18.162 48,21 C48,23.838 41.224,27 31.5,27 C21.776,27 15,23.838 15,21 C15,18.162 21.776,15 31.5,15 L31.5,15 Z M48,60.02 C48,62.772 41.224,65.84 31.5,65.84 C21.776,65.84 15,62.772 15,60.02 L15,51.78 C17.957,54.302 23.937,55.954 31.167,55.954 C32.87,55.954 34.591,55.859 36.279,55.672 L36.059,53.684 C34.443,53.863 32.797,53.954 31.167,53.954 C21.496,53.954 15,50.919 15,48.086 L15,38.287 C17.957,40.809 23.937,42.46 31.167,42.46 C34.632,42.46 37.996,42.076 40.895,41.348 L40.408,39.409 C37.666,40.097 34.471,40.46 31.167,40.46 C21.496,40.46 15,37.426 15,34.592 L15,24.722 C17.997,27.305 24.104,29 31.5,29 C38.896,29 45.003,27.305 48,24.722 L48,36 L50,36 L50,21 C50,16.439 42.047,13 31.5,13 C20.953,13 13,16.439 13,21 L13,60.02 C13,64.478 20.953,67.84 31.5,67.84 C42.047,67.84 50,64.478 50,60.02 L50,55 L48,55 L48,60.02 Z" id="Amazon-Neptune_Icon_64_Squid" fill="#FFFFFF"></path>
    </g>
</svg>
